src/components/Icon/assets/call.svg

<svg width="24" height="24" viewBox="0 0 24 24" fill="none" xmlns="http://www.w3.org/2000/svg">
<path fill-rule="evenodd" clip-rule="evenodd" d="M20.0346 20.9944L19.5076 20.9144C11.0256 19.6274 4.3696 12.9704 3.0846 4.4884L3.0056 3.9654C2.9676 3.7154 3.1386 3.4814 3.3886 3.4444L6.1696 3.0224C7.1536 2.8734 8.0966 3.4734 8.3776 4.4284L9.1636 7.0964C9.3696 7.7954 9.1776 8.5514 8.6616 9.0664L7.2746 10.4544C8.7896 13.0524 10.9476 15.2094 13.5456 16.7254L14.9336 15.3374C15.4496 14.8224 16.2046 14.6294 16.9046 14.8354L19.5716 15.6214C20.5266 15.9034 21.1266 16.8464 20.9776 17.8294L20.9346 18.1084L20.5556 20.6104C20.5176 20.8604 20.2846 21.0324 20.0346 20.9944" fill="#65676A"/>
</svg>

<svg xmlns="http://www.w3.org/2000/svg" width="24" height="24" viewBox="0 0 24 24">
    <path fill="#65676A" fill-rule="evenodd" d="M20.035 20.994l-.527-.08C11.026 19.627 4.37 12.97 3.085 4.488l-.08-.523c-.037-.25.134-.484.384-.52l2.78-.423c.985-.149 1.928.451 2.209 1.406l.786 2.668c.206.7.014 1.455-.502 1.97l-1.387 1.388c1.515 2.598 3.673 4.755 6.27 6.271l1.389-1.388c.516-.515 1.27-.708 1.97-.502l2.668.786c.955.282 1.555 1.225 1.406 2.208l-.043.28-.38 2.501c-.037.25-.27.422-.52.384"/>
</svg>
